X:0891
M:2/4
L:1/8
Q:1/4=120
P:ABA % Aird uses a da capo
K:D
P:A
P:B
a|a^g````=gf|ee````ef     |ggfe|d(d/e/) dA|Bc``````de|fg``````aa     |bagf|f2e||

